svgs/light/sliders-simple.svg

<svg xmlns="http://www.w3.org/2000/svg" viewBox="0 0 512 512"><!--! Font Awesome Pro 6.4.2 by @fontawesome - https://fontawesome.com License - https://fontawesome.com/license (Commercial License) Copyright 2023 Fonticons, Inc. --><path d="M80 320a48 48 0 1 0 0 96 48 48 0 1 0 0-96zm78.4 32L496 352c8.8 0 16 7.2 16 16s-7.2 16-16 16l-337.6 0c-7.4 36.5-39.7 64-78.4 64c-44.2 0-80-35.8-80-80s35.8-80 80-80c38.7 0 71 27.5 78.4 64zM384 144a48 48 0 1 0 96 0 48 48 0 1 0 -96 0zm-30.4-16C361 91.5 393.3 64 432 64c44.2 0 80 35.8 80 80s-35.8 80-80 80c-38.7 0-71-27.5-78.4-64L16 160c-8.8 0-16-7.2-16-16s7.2-16 16-16l337.6 0z"/></svg>

<svg xmlns="http://www.w3.org/2000/svg" viewBox="0 0 512 512"><!--! Font Awesome Pro 6.1.1 by @fontawesome - https://fontawesome.com License - https://fontawesome.com/license (Commercial License) Copyright 2022 Fonticons, Inc. --><path d="M496 352C504.8 352 512 359.2 512 368C512 376.8 504.8 384 496 384H158.4C150.1 420.5 118.7 448 80 448C35.82 448 0 412.2 0 368C0 323.8 35.82 288 80 288C118.7 288 150.1 315.5 158.4 352H496zM32 368C32 394.5 53.49 416 80 416C106.5 416 128 394.5 128 368C128 341.5 106.5 320 80 320C53.49 320 32 341.5 32 368zM353.6 128C361 91.48 393.3 64 432 64C476.2 64 512 99.82 512 144C512 188.2 476.2 224 432 224C393.3 224 361 196.5 353.6 160H16C7.164 160 0 152.8 0 144C0 135.2 7.164 128 16 128H353.6zM432 192C458.5 192 480 170.5 480 144C480 117.5 458.5 96 432 96C405.5 96 384 117.5 384 144C384 170.5 405.5 192 432 192z"/></svg>
